;FLAVOR:Marlin
;TIME:4659
;Filament used: 3.12585m
;Layer height: 0.15
;MINX:109.129
;MINY:80.476
;MINZ:0.2
;MAXX:144.884
;MAXY:129.544
;MAXZ:61.85
;Generated with Cura_SteamEngine 4.8.0
M82 ;absolute extrusion mode
G21 ;set units to millimeters
G90 ;use absolute positioning
M82 ;absolute extrusion mode
M104 S200 ; set extruder temp
M140 S60 ; set bed temp
M190 S60 ; wait for bed temp
M109 S200 ; wait for extruder temp
G80 ; mesh bed leveling
G92 E0.0 ; reset extruder distance position
G1 Y-3.0 F1000.0 ; go outside print area
G1 X60.0 E9.0 F1000.0 ; intro line
G1 X100.0 E21.5 F1000.0 ; intro line
G92 E0.0 ; reset extruder distance position
G92 E0
G92 E0
G1 F2100 E-0.8
;LAYER_COUNT:412
;LAYER:0
M107
G0 F3600 X111.064 Y85.398 Z0.2
;TYPE:SKIRT
G1 F2100 E0
G1 F1800 X111.652 Y84.843 E0.02689
G1 X112.447 Y84.233 E0.06022
G1 X112.579 Y84.136 E0.06567
G1 X113.669 Y83.303 E0.1113
G1 X114.43 Y82.737 E0.14284
G1 X114.906 Y82.433 E0.16163
G1 X115.421 Y82.199 E0.18044
G1 X115.963 Y82.039 E0.19924
G1 X116.523 Y81.958 E0.21806
G1 X117.199 Y81.965 E0.24054
G1 X117.929 Y82.035 E0.26493
G1 X120.673 Y82.258 E0.3565
G1 X123.346 Y82.4 E0.44553
G1 X126.088 Y82.468 E0.53676
G1 X128.795 Y82.458 E0.62679
G1 X131.502 Y82.372 E0.71687
G1 X134.212 Y82.209 E0.80717
G1 X136.346 Y82.006 E0.87847
G1 X137.757 Y81.885 E0.92557
G1 X138.323 Y81.876 E0.9444
G1 X138.883 Y81.948 E0.96318
G1 X139.428 Y82.097 E0.98197
G1 X139.947 Y82.322 E1.00078
G1 X140.501 Y82.672 E1.02258
G1 X142.122 Y83.889 E1.09
G1 X143.197 Y84.685 E1.13449
G1 X143.627 Y85.053 E1.15331
G1 X143.935 Y85.392 E1.16855
G1 X144.269 Y85.848 E1.18735
G1 X144.536 Y86.346 E1.20614
G1 X144.729 Y86.877 E1.22493
G1 X144.846 Y87.43 E1.24373
G1 X144.884 Y87.994 E1.26253
G1 X144.842 Y88.558 E1.28134
G1 X144.721 Y89.11 E1.30014
G1 X144.422 Y89.846 E1.32656
G1 X144.128 Y90.378 E1.34678
G1 X143.078 Y92.196 E1.4166
G1 X142.274 Y93.614 E1.47082
G1 X141.949 Y94.199 E1.49308
G1 X140.663 Y96.59 E1.58338
G1 X139.44 Y99.026 E1.67404
G1 X138.298 Y101.472 E1.76382
G1 X137.22 Y103.964 E1.85413
G1 X136.201 Y106.511 E1.94537
G1 X135.276 Y109.027 E2.03453
G1 X134.41 Y111.607 E2.12504
G1 X133.616 Y114.217 E2.21578
G1 X132.737 Y117.47 E2.32786
G1 X132.396 Y118.829 E2.37446
G1 X132.22 Y119.366 E2.39325
G1 X131.97 Y119.873 E2.41206
G1 X131.651 Y120.34 E2.43087
G1 X131.269 Y120.757 E2.44968
G1 X130.833 Y121.116 E2.46846
G1 X130.35 Y121.41 E2.48727
G1 X129.83 Y121.633 E2.50609
G1 X129.285 Y121.78 E2.52486
G1 X128.731 Y121.849 E2.54343
G1 X128.329 Y121.866 E2.55681
G1 X126.939 Y121.872 E2.60304
G1 X126.506 Y121.861 E2.61745
G1 X125.944 Y121.804 E2.63624
G1 X125.395 Y121.668 E2.65505
G1 X124.871 Y121.456 E2.67385
G1 X124.382 Y121.172 E2.69266
G1 X123.938 Y120.822 E2.71146
G1 X123.548 Y120.413 E2.73026
G1 X123.219 Y119.954 E2.74904
G1 X122.958 Y119.452 E2.76786
G1 X122.758 Y118.869 E2.78836
G1 X122.048 Y116.138 E2.88221
G1 X121.285 Y113.515 E2.97307
G1 X120.454 Y110.932 E3.06332
G1 X119.539 Y108.34 E3.15474
G1 X118.58 Y105.852 E3.24343
G1 X117.522 Y103.323 E3.33461
G1 X116.405 Y100.85 E3.42486
G1 X115.218 Y98.41 E3.51511
G1 X113.976 Y96.03 E3.6044
G1 X112.788 Y93.898 E3.68557
G1 X112.276 Y92.998 E3.72001
G1 X111.685 Y91.979 E3.75919
G1 X110.909 Y90.658 E3.81015
G1 X110.572 Y90.068 E3.83275
G1 X110.327 Y89.558 E3.85157
G1 X110.156 Y89.02 E3.87034
G1 X110.063 Y88.462 E3.88916
G1 X110.049 Y87.897 E3.90796
G1 X110.116 Y87.335 E3.92678
G1 X110.26 Y86.789 E3.94556
G1 X110.481 Y86.268 E3.96438
G1 X110.725 Y85.851 E3.98045
G1 X111.064 Y85.398 E3.99927
G0 F3600 X111.385 Y85.639
G1 F1800 X111.896 Y85.16 E4.02257
G1 X112.684 Y84.555 E4.05561
G1 X112.8 Y84.47 E4.06039
G1 X113.908 Y83.624 E4.10676
G1 X114.669 Y83.058 E4.1383
G1 X115.122 Y82.771 E4.15614
G1 X115.612 Y82.555 E4.17395
G1 X116.129 Y82.413 E4.19178
G1 X116.662 Y82.35 E4.20963
G1 X117.161 Y82.363 E4.22624
G1 X117.911 Y82.435 E4.2513
G1 X120.617 Y82.655 E4.3416
G1 X123.351 Y82.8 E4.43266
G1 X126.079 Y82.868 E4.52342
G1 X128.808 Y82.858 E4.61419
G1 X131.54 Y82.771 E4.7051
G1 X134.214 Y82.61 E4.7942
G1 X136.38 Y82.404 E4.86656
G1 X137.791 Y82.283 E4.91367
G1 X138.328 Y82.277 E4.93153
G1 X138.859 Y82.351 E4.94936
G1 X139.373 Y82.503 E4.96719
G1 X139.859 Y82.73 E4.98503
G1 X140.261 Y82.991 E5.00097
G1 X141.904 Y84.226 E5.06933
G1 X142.959 Y85.007 E5.11299
G1 X143.365 Y85.357 E5.13082
G1 X143.63 Y85.65 E5.14396
G1 X143.945 Y86.084 E5.1618
G1 X144.193 Y86.56 E5.17965
G1 X144.367 Y87.067 E5.19748
G1 X144.463 Y87.595 E5.21532
G1 X144.481 Y88.131 E5.23316
G1 X144.418 Y88.663 E5.25098
G1 X144.277 Y89.181 E5.26884
G1 X144.068 Y89.659 E5.28619
G1 X143.779 Y90.182 E5.30606
G1 X142.73 Y91.999 E5.37584
G1 X141.926 Y93.417 E5.43006
G1 X141.599 Y94.004 E5.45241
G1 X140.31 Y96.399 E5.54287
G1 X139.084 Y98.843 E5.63381
G1 X137.94 Y101.294 E5.72378
G1 X136.839 Y103.836 E5.81591
G1 X135.842 Y106.33 E5.90525
G1 X134.897 Y108.898 E5.99626
G1 X134.024 Y111.501 E6.08757
G1 X133.233 Y114.101 E6.17796
G1 X132.349 Y117.372 E6.29066
G1 X132.008 Y118.731 E6.33726
G1 X131.839 Y119.24 E6.3551
G1 X131.596 Y119.718 E6.37294
G1 X131.285 Y120.155 E6.39078
G1 X130.913 Y120.541 E6.40861
G1 X130.487 Y120.867 E6.42645
G1 X130.018 Y121.127 E6.44428
G1 X129.515 Y121.314 E6.46213
G1 X128.99 Y121.424 E6.47997
G1 X128.328 Y121.466 E6.50203
G1 X126.938 Y121.472 E6.54827
G1 X126.518 Y121.461 E6.56224
G1 X125.985 Y121.405 E6.58007
G1 X125.466 Y121.27 E6.5979
G1 X124.973 Y121.059 E6.61574
G1 X124.516 Y120.778 E6.63358
G1 X124.107 Y120.432 E6.6514
G1 X123.753 Y120.029 E6.66924
G1 X123.463 Y119.577 E6.6871
G1 X123.244 Y119.088 E6.70492
G1 X123.145 Y118.769 E6.71603
G1 X122.431 Y116.022 E6.81043
G1 X121.667 Y113.396 E6.9014
G1 X120.837 Y110.814 E6.9916
G1 X119.918 Y108.212 E7.08338
G1 X118.942 Y105.678 E7.1737
G1 X117.897 Y103.182 E7.2637
G1 X116.771 Y100.689 E7.35468
G1 X115.574 Y98.229 E7.44567
G1 X114.307 Y95.801 E7.53676
G1 X113.138 Y93.703 E7.61664
G1 X112.639 Y92.827 E7.65018
G1 X112.031 Y91.779 E7.69047
G1 X111.256 Y90.46 E7.74136
G1 X110.919 Y89.87 E7.76396
G1 X110.688 Y89.385 E7.78182
G1 X110.532 Y88.872 E7.79966
G1 X110.454 Y88.342 E7.81747
G1 X110.456 Y87.805 E7.83534
G1 X110.537 Y87.275 E7.85317
G1 X110.696 Y86.763 E7.871
G1 X111.017 Y86.137 E7.8944
G1 X111.062 Y86.067 E7.89717
G1 X111.385 Y85.639 E7.915
G0 F3600 X111.704 Y85.881
G1 F1800 X112.14 Y85.477 E7.93477
G1 X112.921 Y84.877 E7.96753
G1 X113.053 Y84.78 E7.97297
G1 X114.146 Y83.945 E8.01872
G1 X114.907 Y83.379 E8.05027
G1 X115.336 Y83.111 E8.06709
G1 X115.801 Y82.913 E8.0839
G1 X116.291 Y82.79 E8.1007
G1 X116.795 Y82.747 E8.11753
G1 X117.123 Y82.762 E8.12845
G1 X117.861 Y82.833 E8.15311
G1 X120.564 Y83.052 E8.2433
G1 X123.356 Y83.201 E8.3363
G1 X126.07 Y83.268 E8.42659
G1 X128.822 Y83.258 E8.51813
G1 X131.541 Y83.172 E8.60861
G1 X134.248 Y83.009 E8.6988
G1 X136.415 Y82.803 E8.7712
G1 X137.826 Y82.682 E8.81831
G1 X138.331 Y82.678 E8.8351
G1 X138.831 Y82.755 E8.85193
G1 X139.312 Y82.909 E8.86873
G1 X139.764 Y83.137 E8.88557
G1 X140.021 Y83.311 E8.89589
G1 X141.664 Y84.545 E8.96423
G1 X142.721 Y85.328 E9.00798
G1 X143.257 Y85.83 E9.03241
G1 X143.324 Y85.909 E9.03585
G1 X143.62 Y86.319 E9.05267
G1 X143.847 Y86.771 E9.06949
G1 X144.001 Y87.253 E9.08632
G1 X144.076 Y87.753 E9.10314
G1 X144.072 Y88.258 E9.11994
G1 X143.988 Y88.757 E9.13677
G1 X143.827 Y89.236 E9.15358
G1 X143.431 Y89.986 E9.18178
G1 X142.369 Y91.824 E9.25239
G1 X141.578 Y93.219 E9.30572
G1 X141.249 Y93.81 E9.32822
G1 X139.959 Y96.21 E9.41885
G1 X138.722 Y98.673 E9.51052
G1 X137.569 Y101.145 E9.60124
G1 X136.478 Y103.665 E9.69257
G1 X135.454 Y106.223 E9.78422
G1 X134.526 Y108.749 E9.87372
G1 X133.648 Y111.362 E9.96541
G1 X132.846 Y113.999 E10.05708
G1 X131.961 Y117.275 E10.16995
G1 X131.62 Y118.634 E10.21655
G1 X131.458 Y119.113 E10.23337
G1 X131.224 Y119.561 E10.25018
G1 X130.921 Y119.966 E10.267
G1 X130.559 Y120.318 E10.28379
G1 X130.145 Y120.609 E10.30062
G1 X129.691 Y120.831 E10.31743
G1 X129.208 Y120.979 E10.33423
G1 X128.688 Y121.05 E10.35169
G1 X128.326 Y121.066 E10.36374
G1 X126.936 Y121.072 E10.40997
G1 X126.531 Y121.061 E10.42345
G1 X126.028 Y121.006 E10.44028
G1 X125.541 Y120.872 E10.45708
G1 X125.08 Y120.663 E10.47391
G1 X124.659 Y120.384 E10.49071
G1 X124.286 Y120.043 E10.50752
G1 X123.972 Y119.646 E10.52436
G1 X123.724 Y119.206 E10.54116
G1 X123.532 Y118.668 E10.56015
G1 X122.816 Y115.914 E10.6548
G1 X122.046 Y113.266 E10.74652
G1 X121.208 Y110.662 E10.8375
G1 X120.308 Y108.113 E10.92741
G1 X119.312 Y105.529 E11.01952
G1 X118.26 Y103.013 E11.11022
G1 X117.131 Y100.515 E11.2014
G1 X115.931 Y98.048 E11.29264
G1 X114.669 Y95.628 E11.38342
G1 X113.5 Y93.532 E11.46324
G1 X112.971 Y92.602 E11.49883
G1 X112.377 Y91.578 E11.5382
G1 X111.603 Y90.261 E11.58901
G1 X111.266 Y89.671 E11.61161
G1 X111.051 Y89.214 E11.62841
G1 X110.91 Y88.728 E11.64524
G1 X110.848 Y88.226 E11.66206
G1 X110.866 Y87.721 E11.67887
G1 X110.962 Y87.225 E11.69567
G1 X111.136 Y86.75 E11.7125
G1 X111.398 Y86.284 E11.73028
G1 X111.704 Y85.881 E11.74711
G1 F2100 E10.94711
;MESH:pikachu_1gen_flowalistik.STL
G0 F3600 X114.654 Y87.32
G0 X114.693 Y88.394
G0 X126.073 Y101.013
;TYPE:WALL-INNER
G1 F2100 E11.74711
G1 F1800 X125.835 Y100.885 E11.7561
G1 X125.173 Y100.53 E11.78108
G1 X120.477 Y97.881 E11.96041
G1 X120.465 Y97.82 E11.96247
G1 X116.091 Y90.422 E12.24832
G1 X116.001 Y90.243 E12.25499
G1 X115.188 Y88.861 E12.30832
G1 X115.019 Y88.573 E12.31942
G1 X115.352 Y88.562 E12.32574
G1 X115.354 Y88.561 E12.32581
G1 X115.795 Y88.545 E12.34049
G1 X115.958 Y87.548 E12.37409
G1 X117.112 Y87.563 E12.41247
G1 X117.144 Y87.375 E12.41882
G1 X117.145 Y87.374 E12.41886
G1 X117.2 Y87.033 E12.43035
G1 X117.467 Y87.253 E12.43686
G1 X118.49 Y88.097 E12.48098
G1 X118.602 Y88.166 E12.48535
G1 X122.477 Y91.455 E12.6544
G1 X122.894 Y91.382 E12.66848
G1 X127.477 Y92.048 E12.82251
G1 X132.057 Y91.351 E12.9766
G1 X132.475 Y91.419 E12.99068
G1 X136.334 Y88.095 E13.16008
G1 X136.438 Y88.032 E13.16413
G1 X137.454 Y87.183 E13.20817
G1 X137.72 Y86.96 E13.21971
G1 X137.778 Y87.303 E13.22625
G1 X137.81 Y87.489 E13.23253
G1 X138.964 Y87.464 E13.27092
G1 X139.136 Y88.46 E13.30454
G1 X139.577 Y88.472 E13.31921
G1 X139.578 Y88.473 E13.31926
G1 X139.912 Y88.481 E13.33037
G1 X139.745 Y88.771 E13.33672
G1 X138.942 Y90.16 E13.39008
G1 X138.863 Y90.32 E13.39602
G1 X134.531 Y97.772 E13.68271
G1 X134.52 Y97.83 E13.68467
G1 X129.835 Y100.517 E13.86431
G1 X129.19 Y100.878 E13.88889
G1 X128.958 Y101.008 E13.89774
G1 X129.148 Y101.194 E13.90303
G1 X129.411 Y101.452 E13.91529
G1 X127.974 Y117.277 E14.44379
G1 X127.166 Y117.281 E14.47067
G1 X125.614 Y101.466 E14.9992
G1 X125.88 Y101.203 E15.01165
G1 X126.073 Y101.013 E15.01703
G0 F3600 X125.406 Y101.109
;TYPE:WALL-OUTER
G1 F1800 X125.33 Y101.068 E15.0199
G1 X124.984 Y100.883 E15.03295
G1 X120.121 Y98.139 E15.21866
G1 X120.086 Y97.965 E15.22457
G1 X115.737 Y90.61 E15.50876
G1 X115.649 Y90.434 E15.51531
G1 X114.502 Y88.485 E15.59052
G1 X114.333 Y88.197 E15.60163
G1 X114.666 Y88.187 E15.60794
G1 X114.668 Y88.186 E15.60802
G1 X115.453 Y88.157 E15.63414
G1 X115.619 Y87.144 E15.66829
G1 X116.773 Y87.159 E15.70667
G1 X116.862 Y86.624 E15.72471
G1 X116.863 Y86.623 E15.72476
G1 X116.918 Y86.282 E15.73625
G1 X117.185 Y86.502 E15.74276
G1 X118.722 Y87.77 E15.80903
G1 X118.837 Y87.84 E15.81351
G1 X122.593 Y91.029 E15.97739
G1 X122.889 Y90.977 E15.98738
G1 X127.476 Y91.644 E16.14155
G1 X132.061 Y90.946 E16.29581
G1 X132.355 Y90.994 E16.30571
G1 X136.098 Y87.771 E16.47
G1 X136.204 Y87.706 E16.47413
G1 X137.731 Y86.429 E16.54034
G1 X137.997 Y86.206 E16.55189
G1 X138.055 Y86.549 E16.55843
G1 X138.146 Y87.082 E16.57641
G1 X139.299 Y87.057 E16.61477
G1 X139.474 Y88.069 E16.64893
G1 X140.259 Y88.091 E16.67505
G1 X140.26 Y88.092 E16.6751
G1 X140.594 Y88.1 E16.68621
G1 X140.427 Y88.39 E16.69256
G1 X139.295 Y90.349 E16.76781
G1 X139.213 Y90.514 E16.77394
G1 X134.912 Y97.913 E17.05859
G1 X134.88 Y98.085 E17.06441
G1 X130.034 Y100.864 E17.25021
G1 X129.691 Y101.056 E17.26328
G1 X129.619 Y101.096 E17.26602
G1 X129.826 Y101.299 E17.27214
G1 X128.34 Y117.669 E17.81885
G1 X127.57 Y117.687 E17.84447
G1 X126.803 Y117.676 E17.86998
G1 X125.197 Y101.315 E18.41676
G1 X125.406 Y101.109 E18.42296
G0 F3600 X125.33 Y101.068
G0 X125.23 Y101.015
G0 X125.358 Y100.187
;TYPE:SKIN
G1 F1800 X120.797 Y97.615 E18.59712
G1 X116.433 Y90.234 E18.88231
G1 X116.344 Y90.056 E18.88893
G1 X115.686 Y88.939 E18.93205
G1 X116.129 Y88.923 E18.94679
G1 X116.289 Y87.942 E18.97985
G1 X117.442 Y87.957 E19.0182
G1 X117.474 Y87.765 E19.02468
G1 X118.262 Y88.415 E19.05865
G1 X118.374 Y88.483 E19.06301
G1 X122.364 Y91.87 E19.23709
G1 X122.899 Y91.777 E19.25515
G1 X127.479 Y92.442 E19.40907
G1 X132.056 Y91.746 E19.56306
G1 X132.592 Y91.833 E19.58112
G1 X136.568 Y88.41 E19.75562
G1 X136.666 Y88.35 E19.75944
G1 X137.449 Y87.694 E19.79341
G1 X137.482 Y87.887 E19.79992
G1 X138.637 Y87.862 E19.83835
G1 X138.806 Y88.841 E19.87139
G1 X139.246 Y88.853 E19.88603
G1 X138.598 Y89.976 E19.92916
G1 X138.52 Y90.134 E19.93502
G1 X134.202 Y97.562 E20.22078
G1 X129.669 Y100.162 E20.39459
G1 X128.313 Y100.922 E20.44629
G1 X129.006 Y101.602 E20.47858
G1 X127.618 Y116.889 E20.98912
G1 X127.519 Y116.889 E20.99242
G1 X126.02 Y101.612 E21.50297
G1 X126.723 Y100.919 E21.5358
G1 X125.358 Y100.187 E21.58732
G0 F3600 X125.736 Y100.969
G0 X127.595 Y115.15
G1 F1800 X127.521 Y115.075 E21.59083
G0 F3600 X127.641 Y114.631
G1 F1800 X127.459 Y114.448 E21.59941
G0 F3600 X127.689 Y114.112
G1 F1800 X127.398 Y113.821 E21.6131
G0 F3600 X127.736 Y113.593
G1 F1800 X127.336 Y113.194 E21.63189
G0 F3600 X127.783 Y113.075
G1 F1800 X127.274 Y112.567 E21.65581
G0 F3600 X127.83 Y112.557
G1 F1800 X127.213 Y111.939 E21.68485
G0 F3600 X127.151 Y111.312
G1 F1800 X127.877 Y112.038 E21.719
G0 F3600 X127.924 Y111.519
G1 F1800 X127.09 Y110.685 E21.75823
G0 F3600 X127.028 Y110.057
G1 F1800 X127.971 Y111 E21.80259
G0 F3600 X128.018 Y110.482
G1 F1800 X126.966 Y109.43 E21.85207
G0 F3600 X126.905 Y108.803
G1 F1800 X128.066 Y109.964 E21.90668
G0 F3600 X128.112 Y109.445
G1 F1800 X126.843 Y108.176 E21.96637
G0 F3600 X126.782 Y107.548
G1 F1800 X128.16 Y108.926 E22.03118
G0 F3600 X128.206 Y108.407
G1 F1800 X126.72 Y106.921 E22.10108
G0 F3600 X126.659 Y106.294
G1 F1800 X128.254 Y107.889 E22.17611
G0 F3600 X128.301 Y107.371
G1 F1800 X126.596 Y105.666 E22.2563
G0 F3600 X126.535 Y105.039
G1 F1800 X128.348 Y106.852 E22.34158
G0 F3600 X128.395 Y106.334
G1 F1800 X126.473 Y104.412 E22.43199
G0 F3600 X126.412 Y103.784
G1 F1800 X128.442 Y105.814 E22.52747
G0 F3600 X128.489 Y105.296
G1 F1800 X126.35 Y103.157 E22.62808
G0 F3600 X126.289 Y102.53
G1 F1800 X128.537 Y104.778 E22.73382
G0 F3600 X128.583 Y104.259
G1 F1800 X126.227 Y101.903 E22.84464
G0 F3600 X126.389 Y101.499
G1 F1800 X128.631 Y103.741 E22.9501
G0 F3600 X128.677 Y103.222
G1 F1800 X126.674 Y101.218 E23.04434
G0 F3600 X126.96 Y100.938
G1 F1800 X128.725 Y102.703 E23.12736
G0 F3600 X128.772 Y102.185
G1 F1800 X116.421 Y89.834 E23.70831
G0 F3600 X116.252 Y89.099
G1 F1800 X128.027 Y100.874 E24.26217
G0 F3600 X128.39 Y100.671
G1 F1800 X116.356 Y88.637 E24.82821
G0 F3600 X116.435 Y88.151
G1 F1800 X128.752 Y100.468 E25.40757
G0 F3600 X129.114 Y100.264
G1 F1800 X116.981 Y88.131 E25.97827
G0 F3600 X117.555 Y88.139
G1 F1800 X129.477 Y100.061 E26.53904
G0 F3600 X129.837 Y99.856
G1 F1800 X120.535 Y90.554 E26.97658
G1 X120.465 Y90.484
G0 F3600 X122.564 Y92.017
G1 F1800 X130.197 Y99.65 E27.33561
G0 F3600 X130.556 Y99.443
G1 F1800 X123.102 Y91.989 E27.68622
G0 F3600 X123.764 Y92.085
G1 F1800 X130.916 Y99.238 E28.02266
G0 F3600 X131.275 Y99.031
G1 F1800 X124.426 Y92.181 E28.34484
G0 F3600 X125.087 Y92.277
G1 F1800 X131.635 Y98.825 E28.65283
G0 F3600 X131.994 Y98.619
G1 F1800 X125.749 Y92.373 E28.9466
G0 F3600 X126.41 Y92.469
G1 F1800 X132.354 Y98.413 E29.22619
G0 F3600 X132.714 Y98.207
G1 F1800 X127.072 Y92.565 E29.49157
G0 F3600 X127.668 Y92.596
G1 F1800 X133.073 Y98 E29.74578
G0 F3600 X133.433 Y97.794
G1 F1800 X128.159 Y92.521 E29.99383
G0 F3600 X128.651 Y92.447
G1 F1800 X133.792 Y97.588 E30.23565
G0 F3600 X134.117 Y97.348
G1 F1800 X129.141 Y92.372 E30.46971
G0 F3600 X129.632 Y92.297
